dist/svgs/team-bulb.svg

<svg xmlns="http://www.w3.org/2000/svg" viewBox="0 0 512 512"><path d="M135 134q-6 7-15 7-8 0-14-7l-30-29q-7-7-7-15.5T76 75q6-7 14.5-7t15.5 7l29 30q7 6 7 14.5t-7 14.5zM65 235q21 0 21 21t-21 21H22q-9 0-15-5.5T1 256t6-15.5 15-5.5h43zM257 85q-21 0-21-21V21q0-9 5.5-15T257 0t15.5 6 5.5 15v43q0 21-21 21zm235 150q9 0 15 5.5t6 15.5-6 15.5-15 5.5h-43q-21 0-21-21t21-21h43zM438 75q7 6 7 14.5t-7 15.5l-30 29q-6 7-14 7-9 0-15-7-7-6-7-14.5t7-14.5l29-30q7-7 15.5-7t14.5 7zM300 469q9 0 15 6t6 16q0 9-6 15t-15 6h-86q-9 0-15-6t-6-15q0-10 6-16t15-6h86zm-43-362q31 0 58 11.5t47.5 32 32 47.5 11.5 58q0 44-23.5 80.5T321 390v37q0 9-6 15t-15 6h-86q-9 0-15-6t-6-15v-37q-38-17-61.5-53.5T108 256q0-31 11.5-58t32-47.5 47.5-32 58-11.5z"/></svg>

<?xml version="1.0" encoding="UTF-8" standalone="no"?><svg   xmlns:svg="http://www.w3.org/2000/svg"   xmlns="http://www.w3.org/2000/svg"   version="1.1"   width="512"   height="512"   viewBox="0 0 512 512">  <path     d="M135 134Q129 141 120 141Q112 141 106 134L76 105Q69 98 69 89.5T76 75Q82 68 90.5 68T106 75L135 105Q142 111 142 119.5T135 134zM65 235Q86 235 86 256T65 277H22Q13 277 7 271.5T1 256T7 240.5T22 235H65zM257 85Q236 85 236 64V21Q236 12 241.5 6T257 0T272.5 6T278 21V64Q278 85 257 85zM492 235Q501 235 507 240.5T513 256T507 271.5T492 277H449Q428 277 428 256T449 235H492zM438 75Q445 81 445 89.5T438 105L408 134Q402 141 394 141Q385 141 379 134Q372 128 372 119.5T379 105L408 75Q415 68 423.5 68T438 75zM300 469Q309 469 315 475T321 491Q321 500 315 506T300 512H214Q205 512 199 506T193 491Q193 481 199 475T214 469H300zM257 107Q288 107 315 118.5T362.5 150.5T394.5 198T406 256Q406 300 382.5 336.5T321 390V427Q321 436 315 442T300 448H214Q205 448 199 442T193 427V390Q155 373 131.5 336.5T108 256Q108 225 119.5 198T151.5 150.5T199 118.5T257 107z"     id="team-bulb" /></svg>
